X:88
T: MORGENROTH MORGENROTH
N: B0575
O: Europa, Mitteleuropa, Deutschland
R: Staende -, Soldaten - Lied
M: 3/4
L: 1/16
K: G
D3B | B4A4D3c | c4B4
G2B2 | d6B2c2A2 | A4G4z4
G3BB2B2B2d2 | d3cA4z4
A3cc2c2c2e2 | e3dB4
G2B2 | d6B2c2A2 | A4G4z4
G3BB2B2B2d2 | d3cA4z4
A3cc2c2c2e2 | e3dB4
G2B2 | d6B2c2A2 | A4G4

